images/head__icon.svg

<svg width="51" height="88" fill="none" xmlns="http://www.w3.org/2000/svg"><path d="M39.96 55.816H10.728L4.32 70H.36l23.184-50.4h3.672L50.4 70h-3.96l-6.48-14.184zm-1.368-3.096L25.344 23.632 12.168 52.72h26.424z" fill="#fff"/><path d="M40.5 33.68L26.34 65h-3.06L9.18 33.68h3.18L24.84 61.7l12.6-28.02h3.06z" fill="#fff"/></svg>

<svg width="51" height="88" viewBox="0 0 51 88" fill="none" xmlns="http://www.w3.org/2000/svg">
<path d="M39.96 55.816H10.728L4.32 70H0.36L23.544 19.6H27.216L50.4 70H46.44L39.96 55.816ZM38.592 52.72L25.344 23.632L12.168 52.72H38.592Z" fill="white"/>
<path d="M40.5 33.68L26.34 65H23.28L9.18 33.68H12.36L24.84 61.7L37.44 33.68H40.5Z" fill="white"/>
</svg>
